/* XPM */
static char * nginx_icon32[] = {
"32 32 537 2",
"aa c None",
"ab c None",
"ac c None",
"ad c None",
"ae c None",
"af c None",
"ag c None",
"ah c None",
"ai c None",
"aj c None",
"ak c None",
"al c None",
"am c #000000",
"an c #010000",
"ao c #110800",
"ap c #0C0800",
"aq c #000000",
"ar c None",
"as c None",
"at c None",
"au c None",
"av c None",
"aw c None",
"ax c None",
"ay c #000000",
"az c #050300",
"aA c #130900",
"aB c #3F2200",
"aC c #653700",
"aD c #8C4D00",
"aE c #854800",
"aF c #502B00",
"aG c #130B00",
"aH c #000000",
"aI c None",
"aJ c None",
"aK c None",
"aL c None",
"aM c None",
"aN c #000000",
"aO c #010200",
"aP c #180C00",
"aQ c #381E00",
"aR c #7E4500",
"aS c #AA5D00",
"aT c #DF7C00",
"aU c #F48C00",
"aV c #F98C00",
"aW c #FB9000",
"aX c #E58400",
"aY c #512B00",
"aZ c #000000",
"a0 c None",
"a1 c None",
"a2 c None",
"a3 c None",
"a4 c None",
"a5 c None",
"a6 c None",
"a7 c #000000",
"a8 c #0D0700",
"a9 c #301A00",
"a! c #663800",
"a# c #B86400",
"a$ c #E58000",
"a% c #F88B00",
"a& c #FF9100",
"a( c #FF9000",
"a) c #FF8E00",
"a* c #FC8B00",
"a+ c #FF9200",
"a, c #EE8800",
"a- c #522C00",
"a. c #000000",
"a/ c None",
"a: c None",
"a; c #028F00",
"a< c #006000",
"a= c #001900",
"a> c #110900",
"a? c #452600",
"a@ c #995400",
"a[ c #D37400",
"a] c #F48B00",
"a^ c #FE8E00",
"a_ c #FD8C00",
"a` c #FD8B00",
"a{ c #FC8A00",
"a| c #FC8B00",
"a} c #FF9000",
"a~ c #B66400",
"ba c #1C1000",
"bb c None",
"bc c None",
"bd c None",
"be c #004500",
"bf c #002D00",
"bg c #0E0E00",
"bh c #482600",
"bi c #A75C00",
"bj c #E88200",
"bk c #FF8F00",
"bl c #FE8B00",
"bm c #FF8C00",
"bn c #763F00",
"bo c #040200",
"bp c None",
"bq c None",
"br c #000100",
"bs c #0D0700",
"bt c #401F00",
"bu c #9F5100",
"bv c #E78000",
"bw c #FF8F00",
"bx c #FD8D00",
"by c #FD8A00",
"bz c #CD7100",
"bA c #271400",
"bB c #000000",
"bC c None",
"bD c None",
"bE c #000000",
"bF c #190D00",
"bG c #8E4B00",
"bH c #E57F00",
"bI c #FF9100",
"bJ c #FF8B00",
"bK c #FD8F00",
"bL c #F68A00",
"bM c #6D3A00",
"bN c #021400",
"bO c #035100",
"bP c None",
"bQ c None",
"bR c #010000",
"bS c #5B3100",
"bT c #F38C00",
"bU c #FF9400",
"bV c #FE8C00",
"bW c #FF8C00",
"bX c #FF9100",
"bY c #AA5B00",
"bZ c #190D00",
"b0 c #004800",
"b1 c #029600",
"b2 c None",
"b3 c None",
"b4 c #150B00",
"b5 c #A45900",
"b6 c #FF8F00",
"b7 c #F98A00",
"b8 c #FC8900",
"b9 c #FD8C00",
"b! c #FF8D00",
"b# c #FF8A00",
"b$ c #FA8900",
"b% c #AD5E00",
"b& c #220C00",
"b( c #002600",
"b) c #028600",
"b* c #009E00",
"b+ c None",
"b, c None",
"b- c None",
"b. c None",
"b/ c #1B2400",
"b: c #BE6500",
"b; c #FF8E00",
"b< c #FD8E00",
"b= c #FD8B00",
"b> c #F28300",
"b? c #DC7600",
"b@ c #C56900",
"b[ c #E07B00",
"b] c #FE8D00",
"b^ c #FC8D00",
"b_ c #A65A00",
"b` c #201000",
"b{ c #002700",
"b| c #048100",
"b} c #04A600",
"b~ c #05A400",
"ca c None",
"cb c None",
"cc c None",
"cd c #019000",
"ce c #054400",
"cf c #6C3900",
"cg c #EB7D00",
"ch c #F98900",
"ci c #ED8000",
"cj c #CF6F00",
"ck c #A85B00",
"cl c #7F4300",
"cm c #512C00",
"cn c #DE7A00",
"co c #FC8C00",
"cp c #A25900",
"cq c #1B0E00",
"cr c #000800",
"cs c #067000",
"ct c #016E00",
"cu c #004500",
"cv c #004100",
"cw c #004900",
"cx c #003300",
"cy c None",
"cz c None",
"cA c #019F00",
"cB c #007400",
"cC c #1F2000",
"cD c #814200",
"cE c #8E4B00",
"cF c #703C00",
"cG c #462500",
"cH c #231200",
"cI c #080500",
"cJ c #090500",
"cK c #915000",
"cL c #FA8C00",
"cM c #BA6600",
"cN c #221300",
"cO c #000000",
"cP c None",
"cQ c #001200",
"cR c #050D00",
"cS c #1C0E00",
"cT c #251300",
"cU c #231300",
"cV c #0F0800",
"cW c #000000",
"cX c None",
"cY c None",
"cZ c #009500",
"c0 c #009800",
"c1 c #019B00",
"c2 c #016600",
"c3 c #0B4200",
"c4 c #0D2B00",
"c5 c None",
"c6 c #010000",
"c7 c #5D3300",
"c8 c #EF8500",
"c9 c #FF8D00",
"c! c #E88000",
"c# c #4D2900",
"c$ c #000000",
"c% c #000000",
"c& c #060300",
"c( c #321700",
"c) c #773F00",
"c* c #C86E00",
"c+ c #DE7900",
"c, c #924E00",
"c- c #241300",
"c. c None",
"c/ c None",
"c: c #009900",
"c; c #009600",
"c< c #009700",
"c= c #019C00",
"c> c #009600",
"c? c None",
"c@ c None",
"c[ c #010000",
"c] c #371E00",
"c^ c #D07200",
"c_ c #FF9000",
"c` c #C56C00",
"c{ c #190E00",
"c| c #000000",
"c} c #201100",
"c~ c #774000",
"da c #D47500",
"db c #F78D00",
"dc c #FF9600",
"dd c #ED8300",
"de c #603300",
"df c None",
"dg c None",
"dh c None",
"di c #009900",
"dj c #009700",
"dk c #009500",
"dl c #009700",
"dm c #029B00",
"dn c None",
"do c None",
"dp c #000100",
"dq c #150B00",
"dr c #AC5F00",
"ds c #FF8E00",
"dt c #DB7800",
"du c #6E3E00",
"dv c #643700",
"dw c #BD6800",
"dx c #F78A00",
"dy c #F98800",
"dz c #CF6E00",
"dA c #331B00",
"dB c #002300",
"dC c None",
"dD c None",
"dE c #009900",
"dF c #009700",
"dG c #009900",
"dH c #009800",
"dI c None",
"dJ c None",
"dK c #040300",
"dL c #713E00",
"dM c #F58A00",
"dN c #F18800",
"dO c #F38900",
"dP c #EF8300",
"dQ c #693200",
"dR c #031A00",
"dS c #016D00",
"dT c None",
"dU c None",
"dV c None",
"dW c #009800",
"dX c #009900",
"dY c #009600",
"dZ c #009800",
"d0 c #01A000",
"d1 c None",
"d2 c #000000",
"d3 c #452700",
"d4 c #E07C00",
"d5 c #EC8100",
"d6 c #823E00",
"d7 c #121600",
"d8 c #005D00",
"d9 c None",
"d! c None",
"d# c None",
"d$ c #009A00",
"d% c #009700",
"d& c #009900",
"d( c #019C00",
"d) c #025F00",
"d* c #000600",
"d+ c #2A1600",
"d, c #BB6700",
"d- c #FC8C00",
"d. c #FC8900",
"d/ c #CF6E00",
"d: c #683300",
"d; c #0B1500",
"d< c #005C00",
"d= c #019800",
"d> c None",
"d? c None",
"d@ c None",
"d[ c #009A00",
"d] c #029D00",
"d^ c #045900",
"d_ c #000C00",
"d` c #432600",
"d{ c #C36C00",
"d| c #E77C00",
"d} c #A05400",
"d~ c #371900",
"ea c #041800",
"eb c #007000",
"ec c #029B00",
"ed c None",
"ee c None",
"ef c #019500",
"eg c #005A00",
"eh c #000800",
"ei c #3B2400",
"ej c #D07600",
"ek c #FD8A00",
"el c #FF8A00",
"em c #E07800",
"en c #6A3800",
"eo c #120E00",
"ep c #002600",
"eq c #007900",
"er c #029F00",
"es c #009900",
"et c None",
"eu c None",
"ev c None",
"ew c None",
"ex c #111100",
"ey c #593400",
"ez c #C87400",
"eA c #F18200",
"eB c #BF6600",
"eC c #683800",
"eD c #0B1500",
"eE c #004A00",
"eF c #049400",
"eG c #019F00",
"eH c #009B00",
"eI c None",
"eJ c None",
"eK c #060000",
"eL c #783F00",
"eM c #EF8A00",
"eN c #EE8000",
"eO c #8F4A00",
"eP c #291200",
"eQ c #041A00",
"eR c #016800",
"eS c #03A000",
"eT c #019B00",
"eU c #009B00",
"eV c #009900",
"eW c None",
"eX c None",
"eY c None",
"eZ c #110A00",
"e0 c #AE6100",
"e1 c #FF9500",
"e2 c #FB8C00",
"e3 c #FE8A00",
"e4 c #F58400",
"e5 c #D67100",
"e6 c #7F4200",
"e7 c #180B00",
"e8 c #000D00",
"e9 c None",
"e! c #03A200",
"e# c #009800",
"e$ c #009900",
"e% c #009B00",
"e& c None",
"e( c None",
"e) c None",
"e* c #1B0E00",
"e+ c #B76300",
"e, c #FF8F00",
"e- c #FF8A00",
"e. c #E77A00",
"e/ c #9B4D00",
"e: c #401D00",
"e; c #0B1800",
"e< c #003D00",
"e= c None",
"e> c #01A400",
"e? c #009700",
"e@ c #009600",
"e[ c #009E00",
"e] c #009800",
"e^ c None",
"e_ c #110800",
"e` c #9A5300",
"e{ c #FD8E00",
"e| c #F78500",
"e} c #C76700",
"e~ c #703B00",
"fa c #192600",
"fb c #003600",
"fc c #006E00",
"fd c #039C00",
"fe c #009D00",
"ff c #009400",
"fg c #009600",
"fh c #009C00",
"fi c #009A00",
"fj c None",
"fk c None",
"fl c #030000",
"fm c #5E3000",
"fn c #F08400",
"fo c #FF9200",
"fp c #DF7600",
"fq c #9C5000",
"fr c #3B2C00",
"fs c #074300",
"ft c #007900",
"fu c #029700",
"fv c #019F00",
"fw c #009B00",
"fx c #009600",
"fy c #009600",
"fz c #009900",
"fA c #009900",
"fB c None",
"fC c None",
"fD c #1E1000",
"fE c #9B5100",
"fF c #DC7700",
"fG c #E57D00",
"fH c #D67400",
"fI c #B86300",
"fJ c #904F00",
"fK c #583900",
"fL c #173000",
"fM c #006C00",
"fN c #009600",
"fO c #029E00",
"fP c #009C00",
"fQ c #009500",
"fR c #009700",
"fS c #009900",
"fT c #009800",
"fU c None",
"fV c #190C00",
"fW c #422400",
"fX c #552E00",
"fY c #442300",
"fZ c #251500",
"f0 c #0D2200",
"f1 c #014B00",
"f2 c None",
"f3 c #039F00",
"f4 c #019B00",
"f5 c #009600",
"f6 c None",
"f7 c None",
"f8 c #009800",
"f9 c #009700",
"f! c #009800",
"f# c #009800",
"f$ c None",
"f% c None",
"f& c None",
"f( c None",
"f) c None",
"f* c None",
"f+ c None",
"f, c None",
"f- c None",
"f. c None",
"f/ c None",
"f: c None",
"f; c None",
"f< c None",
"f= c None",
"f> c None",
"f? c None",
"f@ c None",
"aaaaaaaaaaaaaaaaaaaaaaaaaaabacacacaaadaeafagahagaiaaaaaaaaaaaaaa",
"aaaaaaaaaaaaaaaaababababacacaaadaeajakalamanaoapaqarasaaaaaaaaaa",
"aaaaaaaaaaaaaaaaatatacabaaauavawaxayazaAaBaCaDaEaFaGaHaIaaabaaaa",
"aaaaaaaaaaaaaaabaaaaaJaKaLaMaNaOaPaQaRaSaTaUaVaWaXaYaZa0aaacaaaa",
"aaaaaaaaaaa1aba2a3a4a5a6a7a8a9a!a#a$a%a&a(a)a*a+a,a-a.avaaacaaaa",
"aaaaaaaaaaa/aaa:a;a<a=a>a?a@a[a]a&a(a^a_a`a{a|a}a~babbbcababaaaa",
"aaaaaaaaabaabdbebfbgbhbibja}a(bka_a`a`blbmbla^a%bnbobpadacaaaaaa",
"aaaaaaabaabqbrbsbtbubva}bwbxa`byblbmbmbmbma{a}bzbAbBbCabacaaaaaa",
"aaaaababbDbEbFbGbHbIbIa_a`blbJbmbmbmbmbma{bKbLbMbNbObPabacaaaaaa",
"aaaaacaabQbRbSbTbUa|a{bybVa`a`bWbmbmbmbybxbXbYbZb0b1b2aaataaaaaa",
"aaaaacaeb3b4b5b6b7b8a_b9b!b!b#b$bVbma`bxa)b%b&b(b)b*b+b,aca1aaaa",
"aaabacb-b.b/b:b;b<b!b6b=b>b?b@b[a^a_b]b^b_b`b{b|b}b~cacbaaataaaa",
"aaatabcccdcecfcgchcicjckclaQcmcnbka_cocpcqcrcsctcucvcwcxcyaaabaa",
"aaataaczcAcBcCcDcEcFcGcHcIcJcKcLb]a)cMcNcOcPcQcRcScTcUcVcWcXabab",
"atabcYcZc0c1c2c3c4c5bqaMc6c7c8c9b]c!c#c$c%c&c(c)c*cnc+c,c-c.auac",
"ataac/c:c;c<c=c>c?abc@c[c]c^a(a{c_c`c{c|c}c~dadbbXbXdcdddedfaaac",
"aadgdhdidjdkdldmdndodpdqdra}a|a|dsdtdudvdwdxa}a^a|dyb;dzdAdBdCab",
"aadDdEdFdFdGdHdIaedJdKdLdMa^bybmbma|dNdOa)dsa_bya{c_dPdQdRdSdTaa",
"abdUdVdWdXdYdZd0d1d2d3d4bwbybmbmbmbmbkbka_bya`bVc9d5d6d7d8d9d!ab",
"ataad#d$d%d&d(d)d*d+d,bwd-blbmbmbmbmblbybla_c9d.d/d:d;d<d=d>aaat",
"abatd?d@d[d]d^d_d`d{a^a_blbmbmbmbmbmbmbVa`byd|d}d~eaebecedb,a1ab",
"aaataaeeefegeheiejbXa_bVbmbmbmbmbmbVa`ekelemeneoepeqeresetaaeuaa",
"aaababevewexeyeza&d-blbmbmbmbmbmblb8b8eAeBeCeDeEeFeGeHeIa1atabaa",
"aaacadeJeKeLeMa(a`bVbmbmbmbmbmblbyd.eNeOePeQeReSeTeUeVeWaaataaaa",
"ababeXeYeZe0e1e2blbmbmbmbmbla`e3e4e5e6e7e8e9e!e#e$e%e&b,a1a1aaaa",
"abace(e)e*e+e,a|bVbmbVblblble-e.e/e:e;e<e=e>e?e@e[e]eWaaeuaaaaaa",
"aae^adake_e`e{d-a{a`a_a^bWe|e}e~fafbfcfdfefffgfhfifja1d?abaaaaaa",
"aaababfkflfmfnfob;e,e,b$fpfqfrfsftfufvfwfxfye$fzfAfBaaataaaaaaaa",
"aaabacaufCfDfEfFfGfHfIfJfKfLfMfNfOfPfQdkfReUfSfTb+ata1abaaaaaaaa",
"aaaaababahfUfVfWfXfYfZf0f1f2f3f4f5f6f7f8f9f!f#f$f%aaa1aaaaaaaaaa",
"aaaaaaabaaf&f(f)f*f+f+f,f%f-f.f/dDf:f;f<f=f>f?f@ataaaaaaaaaaaaaa",
"aaaaaaaaababauauadaeaeadaaaaaaaaaaaaaaaaaaaaaaaaaaaaaaaaaaaaaaaa"
};
