/* XPM */
static char * nginx_icon16[] = {
"16 16 195 2",
"aa c None",
"ab c None",
"ac c None",
"ad c None",
"ae c None",
"af c None",
"ag c None",
"ah c None",
"ai c None",
"aj c None",
"ak c None",
"al c None",
"am c None",
"an c #201100",
"ao c #5A3200",
"ap c #975400",
"aq c #BC6B00",
"ar c #643800",
"as c None",
"at c None",
"au c None",
"av c None",
"aw c None",
"ax c #007300",
"ay c #001200",
"az c #462500",
"aA c #975500",
"aB c #E37E00",
"aC c #FF9100",
"aD c #FF9200",
"aE c #FF9D00",
"aF c #8E5000",
"aG c None",
"aH c None",
"aI c None",
"aJ c None",
"aK c #001700",
"aL c #3F3800",
"aM c #B16200",
"aN c #FA8C00",
"aO c #FF9500",
"aP c #FF9000",
"aQ c #FC8A00",
"aR c #FB8D00",
"aS c #F08500",
"aT c #321600",
"aU c None",
"aV c None",
"aW c #773F00",
"aX c #FD8D00",
"aY c #FF9300",
"aZ c #FF8F00",
"a0 c #FF8C00",
"a1 c #FD8B00",
"a2 c #FC8A00",
"a3 c #FF9700",
"a4 c #864600",
"a5 c #004100",
"a6 c None",
"a7 c None",
"a8 c #131A00",
"a9 c #DC7A00",
"a! c #FF9C00",
"a# c #FF8E00",
"a$ c #F08200",
"a% c #E07900",
"a& c #FC8C00",
"a( c #FF9400",
"a) c #9C5200",
"a* c #083B00",
"a+ c #009F00",
"a, c None",
"a- c None",
"a. c #026C00",
"a/ c #7F4700",
"a: c #BA6400",
"a; c #8E4D00",
"a< c #2E1700",
"a= c #AA5D00",
"a> c #FF9800",
"a? c #9F5600",
"a@ c #000000",
"a[ c #003800",
"a] c #1A3300",
"a^ c #112400",
"a_ c None",
"a` c None",
"a{ c #009F00",
"a| c #006A00",
"a} c None",
"a~ c None",
"ba c #542F00",
"bb c #FC9100",
"bc c #E78000",
"bd c #100900",
"be c #2B1700",
"bf c #A05200",
"bg c #E67A00",
"bh c #D37200",
"bi c #351800",
"bj c None",
"bk c None",
"bl c #009400",
"bm c #04AB00",
"bn c None",
"bo c #2D1700",
"bp c #E98300",
"bq c #FF9200",
"br c #EF8400",
"bs c #A95F00",
"bt c #E88000",
"bu c #FF9D00",
"bv c #CF6B00",
"bw c #182D00",
"bx c None",
"by c None",
"bz c None",
"bA c #029F00",
"bB c #008B00",
"bC c #0C0500",
"bD c #B76500",
"bE c #FF9300",
"bF c #FD8A00",
"bG c #FF9300",
"bH c #FF9000",
"bI c #FF9000",
"bJ c #C46100",
"bK c #273600",
"bL c #007900",
"bM c None",
"bN c None",
"bO c #008500",
"bP c #0D2200",
"bQ c #B16100",
"bR c #FF9400",
"bS c #FC8B00",
"bT c #FF8E00",
"bU c #FB8900",
"bV c #834100",
"bW c #0D3200",
"bX c #008F00",
"bY c None",
"bZ c None",
"b0 c #2F1D00",
"b1 c #BF6C00",
"b2 c #FF9500",
"b3 c #FD8C00",
"b4 c #DB7200",
"b5 c #5B3000",
"b6 c #004900",
"b7 c #009E00",
"b8 c #039E00",
"b9 c None",
"b! c #6D3C00",
"b# c #FF9900",
"b$ c #F88700",
"b% c #FF8C00",
"b& c #FF9100",
"b( c #FF8600",
"b) c #A75200",
"b* c #2B2700",
"b+ c #005800",
"b, c #03A600",
"b- c #019900",
"b. c None",
"b/ c None",
"b: c #552D00",
"b; c #DC7300",
"b< c #634A00",
"b= c #005400",
"b> c #008800",
"b? c #04A300",
"b@ c #00A200",
"b[ c #009900",
"b] c None",
"b^ c None",
"b_ c #794000",
"b` c #A05600",
"b{ c #6C4000",
"b| c #264300",
"b} c #008800",
"b~ c #01A700",
"ca c #039D00",
"cb c #009600",
"cc c #009A00",
"cd c None",
"ce c None",
"cf c None",
"cg c None",
"ch c None",
"ci c None",
"cj c None",
"ck c None",
"cl c None",
"cm c None",
"aaaaaaaaababacadaaaeafagahaiaaaa",
"aaaaajaaadakalamanaoapaqarasatau",
"aaavaaawaxayazaAaBaCaDaEaFaGaHau",
"ajaIaJaKaLaMaNaOaPaQaRaSaTaUadaj",
"auadaVaWaXaYaZa0a1a2a3a4a5a6abav",
"a7aaa8a9a!a#a$a%a&a(a)a*a+a,aaav",
"aaa-a.a/a:a;a<a=a>a?a@a[a]a^a_aa",
"aaa`a{a|a}a~babbbcbdbebfbgbhbiaa",
"bjbkblbmbnbobpbqbrbsbta(bubvbwbx",
"bybzbAbBbCbDbEbFa#bGbHbIbJbKbLbM",
"aabNbObPbQbRbSa0a2bTbUbVbWbXbYaa",
"atbZb0b1b2a1a1b3bEb4b5b6b7b8aaaI",
"aHb9b!b#b$b%b&b(b)b*b+b,b-b.ajaI",
"aHb/b:bIa(bIb;b<b=b>b?b@b[aaaIaa",
"b]aab^b_b`b{b|b}b~cacbcccdajavaa",
"aaajaacecfcgchcicjckclcmaaaaaaaa"
};
