/* XPM */
static char * nginx_icon48[] = {
"48 48 1120 2",
"aa c None",
"ab c None",
"ac c None",
"ad c None",
"ae c None",
"af c None",
"ag c None",
"ah c None",
"ai c None",
"aj c None",
"ak c None",
"al c None",
"am c None",
"an c None",
"ao c None",
"ap c None",
"aq c None",
"ar c None",
"as c None",
"at c None",
"au c None",
"av c None",
"aw c #000000",
"ax c #050100",
"ay c #0B0500",
"az c #1A0D00",
"aA c #1E0F00",
"aB c #130A00",
"aC c #070300",
"aD c #000000",
"aE c None",
"aF c None",
"aG c None",
"aH c None",
"aI c None",
"aJ c None",
"aK c None",
"aL c None",
"aM c None",
"aN c None",
"aO c #000000",
"aP c #000000",
"aQ c #000000",
"aR c #030100",
"aS c #201100",
"aT c #351C00",
"aU c #4B2900",
"aV c #6D3B00",
"aW c #774100",
"aX c #603400",
"aY c #3D2000",
"aZ c #1D0F00",
"a0 c #090300",
"a1 c #000000",
"a2 c None",
"a3 c None",
"a4 c None",
"a5 c None",
"a6 c None",
"a7 c #000000",
"a8 c #000000",
"a9 c #000000",
"a! c #080400",
"a# c #2B1800",
"a$ c #402300",
"a% c #583100",
"a& c #8D4D00",
"a( c #AE5F00",
"a) c #BF6900",
"a* c #D37400",
"a+ c #D77600",
"a, c #CA7100",
"a- c #B46400",
"a. c #6D3C00",
"a/ c #1F1100",
"a: c #010100",
"a; c None",
"a< c None",
"a= c None",
"a> c None",
"a? c None",
"a@ c None",
"a[ c None",
"a] c None",
"a^ c None",
"a_ c None",
"a` c None",
"a{ c #000000",
"a| c #010100",
"a} c #0C0700",
"a~ c #221200",
"ba c #331C00",
"bb c #573000",
"bc c #935000",
"bd c #B66400",
"be c #CD7100",
"bf c #F18500",
"bg c #FF9100",
"bh c #FF9300",
"bi c #FF9200",
"bj c #FF8E00",
"bk c #FF9600",
"bl c #FF9800",
"bm c #B86400",
"bn c #381E00",
"bo c #050100",
"bp c None",
"bq c None",
"br c None",
"bs c None",
"bt c None",
"bu c None",
"bv c None",
"bw c None",
"bx c #010100",
"by c #000000",
"bz c #010100",
"bA c #120B00",
"bB c #2A1800",
"bC c #542E00",
"bD c #955100",
"bE c #C36A00",
"bF c #D77800",
"bG c #EC8200",
"bH c #F58900",
"bI c #FB8D00",
"bJ c #FF8E00",
"bK c #FC8E00",
"bL c #FC8D00",
"bM c #FC8B00",
"bN c #FB9200",
"bO c #FF9500",
"bP c #B56200",
"bQ c #391F00",
"bR c #050100",
"bS c None",
"bT c None",
"bU c None",
"bV c #01A700",
"bW c #029B00",
"bX c #037C00",
"bY c #014100",
"bZ c #000A00",
"b0 c #000000",
"b1 c #050300",
"b2 c #251500",
"b3 c #4F2B00",
"b4 c #7A4200",
"b5 c #9F5700",
"b6 c #C66D00",
"b7 c #ED8100",
"b8 c #FF9000",
"b9 c #FF9400",
"b! c #FF9100",
"b# c #FF9000",
"b$ c #FF8F00",
"b% c #FD8C00",
"b& c #FC8900",
"b( c #FB8900",
"b) c #FA8B00",
"b* c #FA8C00",
"b+ c #E98200",
"b, c #874A00",
"b- c #1C0F00",
"b. c #010100",
"b/ c None",
"b: c None",
"b; c None",
"b< c #018500",
"b= c #017900",
"b> c #014700",
"b? c #001E00",
"b@ c #0E0C00",
"b[ c #4C2900",
"b] c #8D4D00",
"b^ c #C76D00",
"b_ c #E67D00",
"b` c #FA8D00",
"b{ c #FF9300",
"b| c #FC8C00",
"b} c #FB8C00",
"b~ c #FC8B00",
"ca c #FD8B00",
"cb c #FE8C00",
"cc c #FF8C00",
"cd c #FF9100",
"ce c #FB8C00",
"cf c #CC7000",
"cg c #563000",
"ch c #020100",
"ci c None",
"cj c None",
"ck c None",
"cl c None",
"cm c #045A00",
"cn c #014200",
"co c #002400",
"cp c #020B00",
"cq c #1F1300",
"cr c #5C3300",
"cs c #9F5700",
"ct c #D17200",
"cu c #EB8400",
"cv c #FA8C00",
"cw c #FD8F00",
"cx c #FD8F00",
"cy c #FE8E00",
"cz c #FE8B00",
"cA c #FB8B00",
"cB c #FF9200",
"cC c #F18500",
"cD c #A25800",
"cE c #000000",
"cF c None",
"cG c None",
"cH c None",
"cI c #001600",
"cJ c #001900",
"cK c #040E00",
"cL c #230E00",
"cM c #572400",
"cN c #914A00",
"cO c #C86E00",
"cP c #F18400",
"cQ c #FF9200",
"cR c #FF8E00",
"cS c #FC8A00",
"cT c #FF8B00",
"cU c #DB7900",
"cV c #643600",
"cW c #110700",
"cX c #010000",
"cY c None",
"cZ c None",
"c0 c None",
"c1 c #010100",
"c2 c #090100",
"c3 c #1E0A00",
"c4 c #482500",
"c5 c #884B00",
"c6 c #CA7100",
"c7 c #F68900",
"c8 c #F98900",
"c9 c #AB5D00",
"c! c #2C1800",
"c# c #000000",
"c$ c None",
"c% c None",
"c& c None",
"c( c #000000",
"c) c #070500",
"c* c #3B1F00",
"c+ c #8C4800",
"c, c #CA6D00",
"c- c #EB8400",
"c. c #FE8D00",
"c/ c #FC8E00",
"c: c #D07100",
"c; c #633600",
"c< c #0E0F00",
"c= c #001C00",
"c> c None",
"c? c None",
"c@ c None",
"c[ c None",
"c] c None",
"c^ c #000100",
"c_ c #201100",
"c` c #864900",
"c{ c #E78400",
"c| c #FF9300",
"c} c #FC8D00",
"c~ c #F38A00",
"da c #914C00",
"db c #221500",
"dc c #021E00",
"dd c #025500",
"de c #039200",
"df c None",
"dg c None",
"dh c None",
"di c None",
"dj c #0A0400",
"dk c #4A2700",
"dl c #C26900",
"dm c #FF9600",
"dn c #FB9000",
"do c #F88800",
"dp c #FF8B00",
"dq c #FE9100",
"dr c #F28700",
"ds c #AF6000",
"dt c #482100",
"du c #030D00",
"dv c #004100",
"dw c #018100",
"dx c #019E00",
"dy c None",
"dz c None",
"dA c None",
"dB c #1C0D00",
"dC c #7C4300",
"dD c #DF7A00",
"dE c #FB8A00",
"dF c #F88700",
"dG c #FB8900",
"dH c #FD8A00",
"dI c #F58800",
"dJ c #B25F00",
"dK c #442000",
"dL c #0B0400",
"dM c #012700",
"dN c #016E00",
"dO c #019600",
"dP c #009700",
"dQ c None",
"dR c None",
"dS c None",
"dT c #000800",
"dU c #2B1D00",
"dV c #A75B00",
"dW c #F38300",
"dX c #FB8A00",
"dY c #FF8C00",
"dZ c #FF8E00",
"d0 c #FF8C00",
"d1 c #FF8D00",
"d2 c #FF8A00",
"d3 c #F48300",
"d4 c #EE8100",
"d5 c #F08400",
"d6 c #F18500",
"d7 c #AB5D00",
"d8 c #492500",
"d9 c #080600",
"d! c #002400",
"d# c #036500",
"d$ c #019600",
"d% c #00A700",
"d& c #00A000",
"d( c None",
"d) c None",
"d* c None",
"d+ c #002B00",
"d, c #272D00",
"d- c #A25700",
"d. c #F37F00",
"d/ c #FD8B00",
"d: c #F68500",
"d; c #EA7E00",
"d< c #DC7500",
"d= c #C56900",
"d> c #B25D00",
"d? c #C36800",
"d@ c #E77F00",
"d[ c #FD8D00",
"d] c #ED8300",
"d^ c #A85C00",
"d_ c #442200",
"d` c #040500",
"d{ c #012500",
"d| c #046400",
"d} c #019200",
"d~ c #019C00",
"ea c #019B00",
"eb c #019B00",
"ec c #019A00",
"ed c None",
"ee c None",
"ef c None",
"eg c None",
"eh c None",
"ei c #005C00",
"ej c #113600",
"ek c #623900",
"el c #C76500",
"em c #FC8A00",
"en c #FB8800",
"eo c #EC7F00",
"ep c #D37200",
"eq c #BC6400",
"er c #A15600",
"es c #763E00",
"et c #482600",
"eu c #452600",
"ev c #975200",
"ew c #EE8300",
"ex c #EE8200",
"ey c #A35900",
"ez c #3C2200",
"eA c #060100",
"eB c #011200",
"eC c #015F00",
"eD c #038700",
"eE c #037A00",
"eF c #056800",
"eG c #065D00",
"eH c #066200",
"eI c #056600",
"eJ c #065A00",
"eK c None",
"eL c None",
"eM c None",
"eN c #01A000",
"eO c #008700",
"eP c #014900",
"eQ c #271F00",
"eR c #873F00",
"eS c #D26D00",
"eT c #D66D00",
"eU c #C66800",
"eV c #B46100",
"eW c #914D00",
"eX c #703A00",
"eY c #5C2F00",
"eZ c #422200",
"e0 c #1B0D00",
"e1 c #0A0500",
"e2 c #402400",
"e3 c #AF6000",
"e4 c #F48800",
"e5 c #A95D00",
"e6 c #050400",
"e7 c #000000",
"e8 c None",
"e9 c #054F00",
"e! c #004300",
"e# c #002A00",
"e$ c #001500",
"e% c #000E00",
"e& c #001400",
"e( c #001900",
"e) c #001400",
"e* c #000900",
"e+ c None",
"e, c None",
"e- c None",
"e. c #019900",
"e/ c #009C00",
"e: c #006D00",
"e; c #0A2900",
"e< c #442900",
"e= c #764100",
"e> c #754000",
"e? c #663700",
"e@ c #562D00",
"e[ c #341D00",
"e] c #170D00",
"e^ c #030100",
"e_ c #020100",
"e` c #000000",
"e{ c #221300",
"e| c #924F00",
"e} c #E88000",
"e~ c #FF8D00",
"fa c #F98A00",
"fb c #040200",
"fc c #010000",
"fd c #050100",
"fe c None",
"ff c #000200",
"fg c #030300",
"fh c #120A00",
"fi c #291200",
"fj c #341700",
"fk c #361900",
"fl c #371800",
"fm c #2B1200",
"fn c #140900",
"fo c #020100",
"fp c None",
"fq c None",
"fr c #009600",
"fs c #009800",
"ft c #009E00",
"fu c #008F00",
"fv c #006200",
"fw c #0C4100",
"fx c #183400",
"fy c #182D00",
"fz c #171B00",
"fA c None",
"fB c None",
"fC c None",
"fD c None",
"fE c #000000",
"fF c #0F0800",
"fG c #603500",
"fH c #D47400",
"fI c #FF8F00",
"fJ c #E27C00",
"fK c #784200",
"fL c #1B0E00",
"fM c #000000",
"fN c #040100",
"fO c #010100",
"fP c #010000",
"fQ c #140900",
"fR c #341900",
"fS c #693900",
"fT c #AA5C00",
"fU c #C86B00",
"fV c #CC6E00",
"fW c #CF7000",
"fX c #B25F00",
"fY c #683800",
"fZ c #201000",
"f0 c #010000",
"f1 c None",
"f2 c None",
"f3 c None",
"f4 c None",
"f5 c None",
"f6 c #009700",
"f7 c #009900",
"f8 c #009700",
"f9 c #019A00",
"f! c #019600",
"f# c #007E00",
"f$ c #006800",
"f% c #005200",
"f& c None",
"f( c None",
"f) c None",
"f* c #050100",
"f+ c #050300",
"f, c #492800",
"f- c #B76400",
"f. c #F78A00",
"f/ c #BE6800",
"f: c #371E00",
"f; c #010000",
"f< c #000000",
"f= c #000000",
"f> c #0B0600",
"f? c #3C2000",
"f@ c #774200",
"f[ c #A95E00",
"f] c #D17500",
"f^ c #F78C00",
"f_ c #FF9300",
"f` c #FF9500",
"f{ c #FF9700",
"f| c #FF9000",
"f} c #C06700",
"f~ c #5B3200",
"ga c #1B0F00",
"gb c None",
"gc c None",
"gd c #009700",
"ge c #009700",
"gf c #009700",
"gg c #009800",
"gh c #009800",
"gi c #029D00",
"gj c #03A200",
"gk c None",
"gl c None",
"gm c None",
"gn c None",
"go c #2D1900",
"gp c #975300",
"gq c #EF8400",
"gr c #F88900",
"gs c #AD5E00",
"gt c #2D1900",
"gu c #020100",
"gv c #0D0800",
"gw c #221300",
"gx c #5B3000",
"gy c #AA5B00",
"gz c #E77D00",
"gA c #FF8F00",
"gB c #F98B00",
"gC c #FF9200",
"gD c #E07900",
"gE c #794000",
"gF c #271400",
"gG c None",
"gH c None",
"gI c #009700",
"gJ c #009900",
"gK c #009800",
"gL c #009700",
"gM c #009800",
"gN c #009800",
"gO c #009900",
"gP c #019C00",
"gQ c None",
"gR c None",
"gS c None",
"gT c #180D00",
"gU c #814600",
"gV c #E27C00",
"gW c #FA8900",
"gX c #C26B00",
"gY c #643900",
"gZ c #371F00",
"g0 c #965300",
"g1 c #D17400",
"g2 c #F28500",
"g3 c #FF8D00",
"g4 c #FD8E00",
"g5 c #FE8F00",
"g6 c #FF8D00",
"g7 c #CB6C00",
"g8 c #512A00",
"g9 c #0B0E00",
"g! c None",
"g# c None",
"g$ c None",
"g% c None",
"g& c #009900",
"g( c #009900",
"g) c #009900",
"g* c #009800",
"g+ c #009800",
"g, c #009500",
"g- c None",
"g. c None",
"g/ c None",
"g: c #010000",
"g; c #080400",
"g< c #CA6E00",
"g= c #FF8F00",
"g> c #E98100",
"g? c #C36D00",
"g@ c #AF6100",
"g[ c #C36A00",
"g] c #EC8100",
"g^ c #FD8A00",
"g_ c #E37C00",
"g` c #874600",
"g{ c #200F00",
"g| c #002300",
"g} c #056500",
"g~ c None",
"ha c None",
"hb c None",
"hc c #009800",
"hd c #009600",
"he c #009900",
"hf c #009800",
"hg c #009C00",
"hh c #009700",
"hi c None",
"hj c None",
"hk c None",
"hl c None",
"hm c #020100",
"hn c #381F00",
"ho c #A25900",
"hp c #F08500",
"hq c #FD8E00",
"hr c #FD9000",
"hs c #F38400",
"ht c #A65600",
"hu c #3E1F00",
"hv c #061600",
"hw c #004B00",
"hx c #038800",
"hy c None",
"hz c None",
"hA c None",
"hB c None",
"hC c #009800",
"hD c #009900",
"hE c #009900",
"hF c #009900",
"hG c #009900",
"hH c #009700",
"hI c None",
"hJ c None",
"hK c None",
"hL c #020200",
"hM c #1F1100",
"hN c #844900",
"hO c #E88000",
"hP c #F28300",
"hQ c #B26000",
"hR c #542500",
"hS c #0E1400",
"hT c #004200",
"hU c #017800",
"hV c None",
"hW c None",
"hX c None",
"hY c None",
"hZ c None",
"h0 c #009A00",
"h1 c #009A00",
"h2 c #009600",
"h3 c #009700",
"h4 c #009800",
"h5 c #009B00",
"h6 c #018000",
"h7 c #032500",
"h8 c #000000",
"h9 c #0D0900",
"h! c #643700",
"h# c #CE7100",
"h$ c #FC8A00",
"h% c #E27A00",
"h& c #A35400",
"h( c #4B2500",
"h) c #141400",
"h* c #003D00",
"h+ c #007900",
"h, c #019A00",
"h- c None",
"h. c None",
"h/ c #009900",
"h: c #009700",
"h; c #009800",
"h< c #009B00",
"h= c #019900",
"h> c #017D00",
"h? c #013D00",
"h@ c #020A00",
"h[ c #100800",
"h] c #B96500",
"h^ c #F78800",
"h_ c #FD8900",
"h` c #EF8100",
"h{ c #C96B00",
"h| c #894600",
"h} c #3C1F00",
"h~ c #061300",
"ia c #003E00",
"ib c #027A00",
"ic c #009700",
"id c None",
"ie c None",
"if c #009900",
"ig c #009800",
"ih c #009B00",
"ii c #019C00",
"ij c #047E00",
"ik c #033900",
"il c #010E00",
"im c #1D1300",
"in c #6A3B00",
"io c #C26B00",
"ip c #F58700",
"iq c #F68500",
"ir c #E27900",
"is c #AA5B00",
"it c #5C2E00",
"iu c #210F00",
"iv c #071A00",
"iw c #015200",
"ix c #018600",
"iy c #019700",
"iz c None",
"iA c None",
"iB c None",
"iC c #009A00",
"iD c #029C00",
"iE c #027C00",
"iF c #003600",
"iG c #000800",
"iH c #1A1200",
"iI c #734100",
"iJ c #D07300",
"iK c #FC8C00",
"iL c #BF6700",
"iM c #814300",
"iN c #422100",
"iO c #0F0D00",
"iP c #001B00",
"iQ c #005200",
"iR c #028F00",
"iS c #02A100",
"iT c #009B00",
"iU c None",
"iV c None",
"iW c None",
"iX c #009000",
"iY c #017600",
"iZ c #003800",
"i0 c #020D00",
"i1 c #181000",
"i2 c #663E00",
"i3 c #D37800",
"i4 c #FC8900",
"i5 c #F88600",
"i6 c #F28100",
"i7 c #C46800",
"i8 c #673600",
"i9 c #1C1100",
"i! c #010E00",
"i# c #002B00",
"i$ c #026700",
"i% c #029200",
"i& c #009C00",
"i( c #009800",
"i) c #009400",
"i* c None",
"i+ c None",
"i, c None",
"i- c #001E00",
"i. c #080F00",
"i/ c #2C1D00",
"i: c #764500",
"i; c #C67300",
"i< c #F78B00",
"i= c #FE9000",
"i> c #FA8800",
"i? c #FA8600",
"i@ c #F58300",
"i[ c #E17800",
"i] c #B66000",
"i^ c #6F3A00",
"i_ c #1E1400",
"i` c #001A00",
"i{ c #014B00",
"i| c #017E00",
"i} c #009500",
"i~ c #009F00",
"ja c #009700",
"jb c None",
"jc c None",
"jd c None",
"je c None",
"jf c #170500",
"jg c #532C00",
"jh c #A15C00",
"ji c #DB8000",
"jj c #F58B00",
"jk c #F98800",
"jl c #FC8800",
"jm c #FE8900",
"jn c #EC7E00",
"jo c #BE6700",
"jp c #7F4500",
"jq c #201C00",
"jr c #022900",
"js c #005800",
"jt c #049100",
"ju c #01A200",
"jv c #009B00",
"jw c #009A00",
"jx c #009B00",
"jy c #009600",
"jz c None",
"jA c None",
"jB c None",
"jC c #000100",
"jD c #351E00",
"jE c #AA5D00",
"jF c #F98C00",
"jG c #FF9600",
"jH c #F78700",
"jI c #ED7E00",
"jJ c #B66000",
"jK c #623200",
"jL c #200C00",
"jM c #020800",
"jN c #002E00",
"jO c #017200",
"jP c #039D00",
"jQ c #009E00",
"jR c #009800",
"jS c #009700",
"jT c #009A00",
"jU c #009800",
"jV c None",
"jW c None",
"jX c None",
"jY c None",
"jZ c #000000",
"j0 c #4D2B00",
"j1 c #CA7000",
"j2 c #FD9100",
"j3 c #FE9200",
"j4 c #FB8800",
"j5 c #E17900",
"j6 c #AF5E00",
"j7 c #5A2F00",
"j8 c #150700",
"j9 c #000000",
"j! c #012B00",
"j# c #017B00",
"j$ c #019C00",
"j% c #019B00",
"j& c #009900",
"j( c #009E00",
"j) c #009A00",
"j* c #009800",
"j+ c None",
"j, c None",
"j- c #040200",
"j. c #5E3200",
"j/ c #D67600",
"j: c #F88D00",
"j; c #F88600",
"j< c #E07600",
"j= c #B65C00",
"j> c #803D00",
"j? c #482300",
"j@ c #151400",
"j[ c #001800",
"j] c #013900",
"j^ c None",
"j_ c None",
"j` c #019E00",
"j{ c #009400",
"j| c #009500",
"j} c #009800",
"j~ c #00A100",
"ka c #009A00",
"kb c None",
"kc c None",
"kd c #050200",
"ke c #603400",
"kf c #D57300",
"kg c #FC8D00",
"kh c #EF7F00",
"ki c #D06C00",
"kj c #954D00",
"kk c #522800",
"kl c #1D1300",
"km c #041700",
"kn c #003200",
"ko c #045F00",
"kp c None",
"kq c None",
"kr c #009600",
"ks c #009700",
"kt c #009B00",
"ku c #009800",
"kv c #009900",
"kw c None",
"kx c None",
"ky c None",
"kz c #020100",
"kA c #4D2900",
"kB c #BE6600",
"kC c #E37A00",
"kD c #B95F00",
"kE c #773D00",
"kF c #322500",
"kG c #0D1D00",
"kH c #002E00",
"kI c #005700",
"kJ c #017D00",
"kK c #019500",
"kL c #009F00",
"kM c #009B00",
"kN c #009500",
"kO c #009700",
"kP c #009900",
"kQ c #009C00",
"kR c #009D00",
"kS c #009700",
"kT c None",
"kU c None",
"kV c #000000",
"kW c #351B00",
"kX c #9C5200",
"kY c #EF8500",
"kZ c #FF9000",
"k0 c #FD8A00",
"k1 c #F18200",
"k2 c #CF6B00",
"k3 c #8F4B00",
"k4 c #543300",
"k5 c #243100",
"k6 c #024400",
"k7 c #005900",
"k8 c #007100",
"k9 c #029000",
"k! c #03A400",
"k# c #00A100",
"k$ c #009600",
"k% c #009400",
"k& c #009700",
"k( c #009700",
"k) c #009900",
"k* c #009A00",
"k+ c #009900",
"k, c None",
"k- c None",
"k. c None",
"k/ c #1A0C00",
"k: c #6A3700",
"k; c #DB7500",
"k< c #FD8C00",
"k= c #F88800",
"k> c #EE8000",
"k? c #D77200",
"k@ c #B25D00",
"k[ c #764000",
"k] c #322900",
"k^ c #073400",
"k_ c #005E00",
"k` c #008300",
"k{ c #039C00",
"k| c #01A200",
"k} c #019C00",
"k~ c #009600",
"la c #009800",
"lb c #009800",
"lc c #009800",
"ld c #009700",
"le c #009600",
"lf c None",
"lg c None",
"lh c None",
"li c #030100",
"lj c #361D00",
"lk c #A25500",
"ll c #E77B00",
"lm c #F48400",
"ln c #FB8A00",
"lo c #F88700",
"lp c #EB8000",
"lq c #D97500",
"lr c #C26600",
"ls c #A45400",
"lt c #7D4200",
"lu c #482B00",
"lv c #1A2C00",
"lw c #044F00",
"lx c #007B00",
"ly c #019100",
"lz c #019A00",
"lA c #019D00",
"lB c #009C00",
"lC c #009A00",
"lD c #009700",
"lE c #009500",
"lF c #009700",
"lG c #009900",
"lH c #009A00",
"lI c #009900",
"lJ c #009800",
"lK c None",
"lL c None",
"lM c None",
"lN c None",
"lO c #100900",
"lP c #442400",
"lQ c #773F00",
"lR c #955100",
"lS c #A25800",
"lT c #995300",
"lU c #864800",
"lV c #6F3B00",
"lW c #533300",
"lX c #383000",
"lY c #273600",
"lZ c #093E00",
"l0 c #005900",
"l1 c #008D00",
"l2 c #02A200",
"l3 c #029F00",
"l4 c #019B00",
"l5 c #009400",
"l6 c #009300",
"l7 c #009600",
"l8 c #009900",
"l9 c #009800",
"l! c #009800",
"l# c #009900",
"l$ c None",
"l% c #040100",
"l& c #170C00",
"l( c #301A00",
"l) c #3B2100",
"l* c #341E00",
"l+ c #261400",
"l, c #160B00",
"l- c #051000",
"l. c #002800",
"l/ c #004C00",
"l: c None",
"l; c None",
"l< c #039F00",
"l= c #009900",
"l> c #009600",
"l? c #009600",
"l@ c None",
"l[ c None",
"l] c #009900",
"l^ c #009A00",
"l_ c #009700",
"l` c #009700",
"l{ c #009900",
"l| c None",
"l} c None",
"l~ c None",
"ma c None",
"mb c None",
"mc c None",
"md c None",
"me c None",
"mf c None",
"mg c None",
"mh c None",
"mi c None",
"mj c None",
"mk c None",
"ml c None",
"mm c None",
"mn c None",
"mo c None",
"mp c None",
"mq c None",
"mr c None",
"ms c None",
"mt c None",
"mu c None",
"mv c None",
"mw c None",
"mx c None",
"my c None",
"mz c None",
"mA c None",
"mB c None",
"aaaaaaaaaaaaaaaaaaaaaaaaaaaaaaaaaaaaaaaaaaaaaaababacadadabaaaaaaaaaeaeaaaaaaaaababaaaaaaaaaaaaaa",
"aaaaaaaaaaaaaaaaaaaaaaaaaaaaaaaaaaaaaaaaabacabaaaaaaaaaaafagahaiajakalamanaoapaaaaaqaaaaaaaaaaaa",
"aaaaaaaaaaaaaaaaaaaaaaaaaaaqaqaqaqaqaqaqaqabaaaeadarasatauavawaxayazaAaBaCaDaEaFaGaaaqaqaaaaaaaa",
"aaaaaaaaaaaaaaaaaaaaaaaqaHaIaHaHaHacaJaJaaaaaKaLaMaNaOaPaQaRaSaTaUaVaWaXaYaZa0a1a2aaaqacaaaaaaaa",
"aaaaaaaaaaaaaaaaaaaaaaaaaaaaaaaaaaaaaaa3a4a5a6a7a8a9a!a#a$a%a&a(a)a*a+a,a-a.a/a:a;aaabaJaaaaaaaa",
"aaaaaaaaaaaaaaaaaaaaaaa<a=a>a?a@a[a]a^a_a`a{a|a}a~babbbcbdbebfbgbhbibjbkblbmbnbobpaaabaJaaaaaaaa",
"aaaaaaaaaaaaaaaaaaa<aqbqbrbsbtbubvbwbxbybzbAbBbCbDbEbFbGbHbIbJbKbKbLbMbNbObPbQbRbSaaabaJaaaaaaaa",
"aaaaaaaaaaaaaaaaaqbTaabUbVbWbXbYbZb0b1b2b3b4b5b6b7b8b9b!b#b$b%b&b(b&b)b*b+b,b-b.b/aaabaJaaaaaaaa",
"aaaaaaaaaaaaaaa<aHabb:b;b<b=b>b?b@b2b[b]b^b_b`b{b$b|b}b~cacacbcccbcacdcecfcgchcicjaaaqabaaaaaaaa",
"aaaaaaaaaaaaaacka<aaclcmcncocpcqcrcsctcucvbJcwcxcyczcbcbczcbcccccbcAcBcCcDbacEcFcGabaqaqaaaaaaaa",
"aaaaaaaaaaaaaqaaadcHcIcJcKcLcMcNcOcPbgcQb#cRcSb(caczcccccccccccccTb~b!cUcVcWcXcYaaaJaqaaaaaaaaaa",
"aaaaaaaaaqaqaacZc0c1c2c3c4c5c6c7cdb$b|cAcab%ccccccccccccccccccczcbcyc8c9c!c#c$c%aaaJaqaaaaaaaaaa",
"aaaaaaaaacaqaac&c(c)c*c+c,c-bIb#cyc.czcbczczcccccccccccccccccccSc/cdc:c;c<c=c>c?aac@aqaaaaaaaaaa",
"aaaaaaaaacaqc[c]c^c_c`c{cBc|b#cacSczcccccccccccccccccccccccccac}cBc~dadbdcdddedfaadgaqaaaaaaaaaa",
"aaaaaaaqabaadhdidjdkdldmdndocacbcbcbcccccbcbdpccccccccccczczcbdqdrdsdtdudvdwdxdyabaHaqaqaaaaaaaa",
"aaaaaaaqaqaadzdAdBdCdDcQc/b(czcbcab%cab%dEdFdGdHccccccccb~b|b#dIdJdKdLdMdNdOdPdQdRaaaHaHaaaaaaaa",
"aaaaaqaqaqa<dSdTdUdVdWb|dXcSczdYbjdZd0d1d2d3d4d5b|cRcTcacyb#d6d7d8d9d!d#d$d%d&d(d)a>acaHaaaaaaaa",
"aaaaaqaHaaa?d*d+d,d-d.b$cycbd1dYd/d:d;d<d=d>d?d@d[c.cbc.bJd]d^d_d`d{d|d}d~eaebecedeea<aqaHaaaaaa",
"aaaaaqefaaegeheiejekelb|cRemeneoepeqereseteuevewcRb~b%b$exeyezeAeBeCeDeEeFeGeHeIeJeKeLaac@aaaaaa",
"aaaaaaefaaeMeNeOePeQeReSeTeUeVeWeXeYeZe0e1e2e3cAb$b~cRe4e5a$e6e7e8e9e!e#e$e%e&e(e)e*e+apaaaqabaa",
"aaa<a<a<e,e-e.e/e:e;e<e=e>e?e@e[e]e^e_e`e{e|e}b$cbe~fabEbCfbfcfdfefffgfhfifjfkflfmfnfofpcZaqabaa",
"aaefaHaafqfrfsftfufvfwfxfyfzfAfBfCfDfEfFfGfHfIcAdXcdfJfKfLfMfNfOfPfQfRfSfTfUfVfWfXfYfZf0f1f2f3ab",
"aaaHaaf4f5f6f7f8f9f!f#f$f%f&f(aaf)f*f+f,f-f.b#cSb|cyf/f:f;f<f=f>f?f@f[f]f^f_f`f{f|f}f~gac0adaaab",
"aHaaefgbgcgdgegfggghgigjgkglaagmgna|gogpgqbJcacccRgrgsgtgugvgwgxgygzgAcde~b)b)gBgCgDgEgFajaKaaab",
"efaagGgHgIgJgKgLgMgNgOgPgQaagRgSbygTgUgVb$d[cScbcRgWgXgYgZbCg0g1g2g3g4g5c.czcadXg6g7g8g9g!g#aack",
"efaag$g%g&gKg(g)g*g+g,g-g.f3g/g:g;b3g<g=d[cacac.ccczg>g?g@g[g]fIb#cyb&g^cab(c}cRg_g`g{g|g}g~aack",
"efaahahbg)hchdhehfhghhhihjhkhlhmhnhohpcddXcbcccccccccyhqhrb#e~cab~b%cccbczb%b$hshthuhvhwhxhyaack",
"aHaahzhAhBhChDhEhFhGhHhIhJhKhLhMhNhOcycbcacccccccccce~cyg5cxc.ccczczczb~cSe~hPhQhRhShThUhVhWaaef",
"abhXaahYhZh0h1h2h3h4h5h6h7h8h9h!h#b$g4cSccccccccccccczg^cScScacccccacze~h$h%h&h(h)h*h+h,h-aahXa<",
"aaaHabc@h.h/h:h;h<h=h>h?h@h[b3h]h^g4b%czccccccccccccccccccccccczcbcbh_h`h{h|h}h~iaibicide,aaaHhX",
"aaaHa<aaieifigihiiijikiliminioipb$caccccccccccccccccccccccccczcSb&iqirisitiuiviwixiyg&izaaa<c@aa",
"aaa<a<a<iAiBiCiDiEiFiGiHiIiJiKb#cbcacccccccccccccccccccccbcSb(cThPiLiMiNiOiPiQiRiSiTiUiVa<a<a<aa",
"aaaqaqefaaiWiXiYiZi0i1i2i3g=c.caczcccccccccccccccccccbczcai4i5i6i7i8i9i!i#i$i%i&i(i)i*aadgaqaaaa",
"aaaaaqc@aqi+i,i-i.i/i:i;i<i=b%cTczccccccccccccccccccg^i>i?i@i[i]i^i_i`i{i|i}h<i~jajbjca<efaqaaaa",
"aaaaaqacaajdjejfjgjhjijjcyb|cacccccccccccccccccbczjkjljmjnjojpf,jqjrjsjtjujvjwjxjyjzaHaHa<aqaaaa",
"aaaqaqaqjAjBjCjDjEjFjGb%b%ccccccccccccccccccczczcbjkjHjIjJjKjLjMjNjOjPjQjRjSjTjUjVjWaaaHhXaaaaaa",
"aaabaqaajXjYjZj0j1j2j3caczccccccccccccccccccg^jlj4d3j5j6j7j8j9j!j#j$j%j&hFj(j)j*j+aaaHefaaaaaaaa",
"aaabaqaaj,aOj-j.j/j:d[b|cbccccccccccccczcacSdHj;j<j=j>j?j@j[j]j^j_j`j{j|j}j~kakbjcaHaHaHaaaaaaaa",
"aaabaqaakcdikdkekfkgb$b%cbcccccccbcbcbcbczi>khkikjkkklkmknkokpkqdPkrksjTktkukvkwaadgaaaaaaaaaaaa",
"aaaqaqabkxkykzkAkBdoi=b~cbe~cbcbcab|b~cSj;kCkDkEkFkGkHkIkJkKkLkMkNkOkPkQkRkSkThza<efaqaaaaaaaaaa",
"aaaaaqaJaakUkVkWkXkYbidXcSb~cbcyfIkZk0k1k2k3k4k5k6k7k8k9k!k#k$k%k&k(jwk)k*k+k,aHaHaqaqaaaaaaaaaa",
"aaaaaqaca3k-k.k/k:k;b8k<c.d1dYk<k=k>k?k@k[k]k^k_k`k{k|k}k~lalblcldh3jwlegdlflgaaa<aqaaaaaaaaaaaa",
"aaaaaqabaaaJlhliljlklllmlnlolplqlrlsltlulvlwlxlylzlAlBlClDlElFlGlHh3lIlJlKlLaaa<aHaaaaaaaaaaaaaa",
"aaaaaqaaf3f3lMlNlOlPlQlRlSlTlUlVlWlXlYlZl0l1l2l3l4l5l6l7l8hhl9kRkRlIl!l#hAl$aHa<a<aaaaaaaaaaaaaa",
"aaaaaaaaaqaqaaasaEl%l&l(l)l*l+l,l-l.l/l:l;l<l=l>l?hbl@l[l]gJl^l_l`f7l{l|l}aaaHaaaaaaaaaaaaaaaaaa",
"aaaaaaaaaqaqaaacl~mambmcmdmemfahmgmhmimjdfmkbrfqmlg~mmmnmompmqmrmsmtmumvmwa<aqaaaaaaaaaaaaaaaaaa",
"aaaaaaaaaaaaaqaaaakxmxmycZaaaaaaaaaaaaaaaaaaaaaaaaaaaaaaaaaaaaaaaaaaaaaaaaa<aaaaaaaaaaaaaaaaaaaa",
"aaaaaaaaaaaaaaabaJaca3aaaacGmzmAbTadaJckefefdgmwdgefaHaHefdgdglglglgmBaHaqaaaaaaaaaaaaaaaaaaaaaa"
};
